X: 42200
T: Wave-Sweeper, The
R: waltz
M: 3/4
K: Edorian
|:Ez BB A2|~B2- Bd BG|AA AG AB|AA AG Ez|
DE ED EG|Bz AA AB|DE GA Bd|~e2 dB AG|
Ez ~B2 A2|~B2- Bd BG|AA AG AB|AA AG Ez|
DE ED EG|AB dA B/c/d|e2 dB AG|1 E2- E2- ED:|2 E2- E2- Ez||
|:DE ED EE|GA AG AA|z2 AB BB|~F2 GA Bd|
~e2 de gz|BB AG AA|GA AG AB|dB ~A2 GE|
DE ED EE|GA AG AA|z2 AB BB|AB ~f2 ~g2|
ed ez BB|AB ~d2 ef-|fA ff fe|fA fg fd||
M:4/4
|:Bgfd eezE-|EGBd ~c3B|AAGA AGAB|dBAG AGFd|
Bgfd edBE-|EGBd ~c3b|aaeg geaa|aega edcA:|

